X: 10035
T: Diarmuid McGig
R: jig
M: 6/8
K: Gmajor
A|:GED DEF|GBA ~G2 c|A~BB GAB|c3 A2 c|Bcd efg|
d.^cB AFD|BGE DEG|BDB ~AGE|D.B.B D.A.A|1 ~G3 G2 A:|2 ~G3 G2 c||
|:def gdB|c3 A2 B|def gdB|d.^cB AFD|def gdB|
d.^cB AGA|BGE DEG|A~BB AGE|D.B.B D.A.A|1 ~G3 G2 c:|2 ~G3 G2 A||

